logos/tv.channel4hd.svg

<?xml version="1.0" encoding="UTF-8" standalone="no"?>
<!-- Created with Inkscape (http://www.inkscape.org/) -->
<svg
   xmlns:dc="http://purl.org/dc/elements/1.1/"
   xmlns:cc="http://web.resource.org/cc/"
   xmlns:rdf="http://www.w3.org/1999/02/22-rdf-syntax-ns#"
   xmlns:svg="http://www.w3.org/2000/svg"
   xmlns="http://www.w3.org/2000/svg"
   xmlns:xlink="http://www.w3.org/1999/xlink"
   xmlns:sodipodi="http://sodipodi.sourceforge.net/DTD/sodipodi-0.dtd"
   xmlns:inkscape="http://www.inkscape.org/namespaces/inkscape"
   width="368"
   height="256"
   id="svg2"
   sodipodi:version="0.32"
   inkscape:version="0.45.1"
   version="1.0"
   inkscape:output_extension="org.inkscape.output.svg.inkscape">
  <g
     inkscape:label="Layer 1"
     inkscape:groupmode="layer"
     id="layer1"
     transform="translate(-554.35216,-189.91514)">
    <g
       id="g20844"
       style="fill:#01748f;fill-opacity:1"
       transform="matrix(17.844695,0,0,17.844695,-7029.9273,-8366.7826)">
      <path
         style="fill:#01748f;fill-opacity:1;fill-rule:evenodd;stroke:none"
         d="M 431.72492,487.97833 L 430.48492,487.97833 L 430.48492,482.87133 L 431.72492,481.28333 L 431.72492,487.97833 z M 430.07192,485.41533 L 429.32392,486.37433 L 429.32392,487.06933 L 429.85292,487.48333 L 428.45792,487.48333 L 428.07292,487.97833 L 426.49992,487.97833 L 430.07192,483.40033 L 430.07192,485.41533 z M 433.37692,491.70733 L 433.37692,492.20133 L 432.13692,492.20133 L 432.13692,483.45833 L 433.37692,481.83333 L 433.05992,481.58633 L 432.13692,482.76933 L 432.13692,480.75433 L 432.39992,480.41733 L 431.23792,479.50933 L 430.97592,479.84633 L 430.97592,480.69833 L 430.56192,480.37533 L 429.32392,481.96333 L 429.32392,482.81533 L 428.91092,482.49333 L 425.33892,487.06933 L 425.86692,487.48333 L 425.01592,487.48333 L 425.01592,488.72333 L 426.17692,489.63133 L 426.17692,488.39133 L 431.72492,488.39133 L 431.72492,489.63133 L 429.32392,489.63133 L 429.32392,492.02933 L 428.91092,491.70733 L 427.67092,491.70733 L 427.67092,492.94633 L 428.83292,493.85533 L 428.83292,492.61433 L 430.07192,492.61433 L 430.07192,493.53233 L 430.48492,493.85533 L 430.48492,490.04433 L 431.72492,490.04433 L 431.72492,493.53233 L 432.13692,493.85533 L 432.13692,492.61433 L 434.91092,492.61433 L 433.74892,491.70733 L 433.37692,491.70733"
         id="path20846" />
      <path
         style="fill:#01748f;fill-opacity:1;fill-rule:evenodd;stroke:none"
         d="M 433.37692,489.30833 L 433.78992,489.63133 L 433.78992,488.39133 L 435.73592,488.39133 L 434.57592,487.48333 L 433.37692,487.48333 L 433.37692,489.30833"
         id="path20848" />
      <path
         style="fill:#01748f;fill-opacity:1;fill-rule:nonzero;stroke:none"
         d="M 439.86392,482.61633 C 439.54892,482.27533 439.04592,482.07233 438.38192,482.07333 C 438.37592,482.07333 438.37092,482.07333 438.36492,482.07333 L 437.85492,482.07333 C 437.74892,482.07333 437.63392,482.07833 437.51792,482.09233 L 437.51792,480.41733 L 435.73592,480.41733 L 435.73592,487.48333 L 436.17692,487.48333 L 436.17692,480.85733 L 437.07892,480.85733 L 437.07892,482.68233 L 437.12492,482.65433 C 437.29292,482.55533 437.60792,482.51233 437.85492,482.51333 L 438.36592,482.51333 C 438.95992,482.51333 439.32292,482.68133 439.54192,482.91633 C 439.76092,483.15133 439.86592,483.50733 439.86592,484.07933 L 439.86592,487.48333 L 440.30592,487.48333 L 440.30592,484.07933 C 440.30592,483.76733 440.27792,483.49633 440.20992,483.25133 C 440.14092,483.00833 440.02592,482.79033 439.86392,482.61633"
         id="path20850" />
      <path
         style="fill:#01748f;fill-opacity:1;fill-rule:nonzero;stroke:none"
         d="M 445.20092,480.41733 L 445.20092,484.80233 C 445.19892,486.04933 444.98092,486.47533 444.73792,486.71933 C 444.41592,487.04233 443.95492,487.09133 443.59292,487.09133 L 442.97692,487.09133 C 442.61392,487.09133 442.14492,487.04233 441.82392,486.71933 C 441.57992,486.47533 441.35592,486.04933 441.35492,484.80233 C 441.35592,483.55533 441.57992,483.12933 441.82392,482.88433 C 442.14492,482.56233 442.61392,482.51233 442.97692,482.51333 L 443.51892,482.51333 C 443.76792,482.51233 444.08192,482.55533 444.24992,482.65433 L 444.29692,482.68333 L 444.29692,480.41733 L 443.85692,480.41733 L 443.85692,482.09233 C 443.74092,482.07833 443.62692,482.07333 443.51892,482.07333 L 442.97692,482.07333 C 442.58292,482.07533 441.98092,482.11333 441.51292,482.57333 C 441.34392,482.74033 441.17892,482.99033 441.07692,483.34233 C 440.97292,483.69433 440.91492,484.15333 440.91492,484.80233 C 440.91492,485.45133 440.97292,485.90933 441.07692,486.26233 C 441.17892,486.61433 441.34392,486.86433 441.51292,487.03033 C 441.98092,487.49033 442.58292,487.52833 442.97692,487.53133 L 443.59292,487.53133 C 443.98592,487.52933 444.58192,487.48933 445.04792,487.03033 C 445.21892,486.86233 445.38192,486.61133 445.48092,486.26033 C 445.58292,485.90733 445.63792,485.45133 445.63792,484.80233 L 445.63792,480.41733 L 445.20092,480.41733"
         id="path20852" />
    </g>
  </g>
</svg>

<?xml version="1.0" encoding="UTF-8" standalone="no"?>
<!-- Created with Inkscape (http://www.inkscape.org/) -->

<svg
   xmlns:dc="http://purl.org/dc/elements/1.1/"
   xmlns:cc="http://creativecommons.org/ns#"
   xmlns:rdf="http://www.w3.org/1999/02/22-rdf-syntax-ns#"
   xmlns:svg="http://www.w3.org/2000/svg"
   xmlns="http://www.w3.org/2000/svg"
   xmlns:inkscape="http://www.inkscape.org/namespaces/inkscape"
   version="1.0"
   width="368"
   height="256"
   id="svg2">
  <metadata
     id="metadata13">
    <rdf:RDF>
      <cc:Work
         rdf:about="">
        <dc:format>image/svg+xml</dc:format>
        <dc:type
           rdf:resource="http://purl.org/dc/dcmitype/StillImage" />
      </cc:Work>
    </rdf:RDF>
  </metadata>
  <defs
     id="defs11" />
  <g
     transform="translate(-554.35216,-189.91514)"
     id="layer1">
    <g
       transform="matrix(17.844695,0,0,17.844695,-7029.9273,-8366.7826)"
       id="g20844"
       style="fill:#01748f;fill-opacity:1">
      <path
         d="m 431.72492,487.97833 -1.24,0 0,-5.107 1.24,-1.588 0,6.695 z m -1.653,-2.563 -0.748,0.959 0,0.695 0.529,0.414 -1.395,0 -0.385,0.495 -1.573,0 3.572,-4.578 0,2.015 z m 3.305,6.292 0,0.494 -1.24,0 0,-8.743 1.24,-1.625 -0.317,-0.247 -0.923,1.183 0,-2.015 0.263,-0.337 -1.162,-0.908 -0.262,0.337 0,0.852 -0.414,-0.323 -1.238,1.588 0,0.852 -0.413,-0.322 -3.572,4.576 0.528,0.414 -0.851,0 0,1.24 1.161,0.908 0,-1.24 5.548,0 0,1.24 -2.401,0 0,2.398 -0.413,-0.322 -1.24,0 0,1.239 1.162,0.909 0,-1.241 1.239,0 0,0.918 0.413,0.323 0,-3.811 1.24,0 0,3.488 0.412,0.323 0,-1.241 2.774,0 -1.162,-0.907 -0.372,0"
         inkscape:connector-curvature="0"
         id="path20846"
         style="fill:#01748f;fill-opacity:1;fill-rule:evenodd;stroke:none" />
      <path
         d="m 433.37692,489.30833 0.413,0.323 0,-1.24 1.946,0 -1.16,-0.908 -1.199,0 0,1.825"
         inkscape:connector-curvature="0"
         id="path20848"
         style="fill:#01748f;fill-opacity:1;fill-rule:evenodd;stroke:none" />
      <path
         d="m 439.86392,482.61633 c -0.315,-0.341 -0.818,-0.544 -1.482,-0.543 -0.006,0 -0.011,0 -0.017,0 l -0.51,0 c -0.106,0 -0.221,0.005 -0.337,0.019 l 0,-1.675 -1.782,0 0,7.066 0.441,0 0,-6.626 0.902,0 0,1.825 0.046,-0.028 c 0.168,-0.099 0.483,-0.142 0.73,-0.141 l 0.511,0 c 0.594,0 0.957,0.168 1.176,0.403 0.219,0.235 0.324,0.591 0.324,1.163 l 0,3.404 0.44,0 0,-3.404 c 0,-0.312 -0.028,-0.583 -0.096,-0.828 -0.069,-0.243 -0.184,-0.461 -0.346,-0.635"
         inkscape:connector-curvature="0"
         id="path20850"
         style="fill:#01748f;fill-opacity:1;fill-rule:nonzero;stroke:none" />
      <path
         d="m 445.20092,480.41733 0,4.385 c -0.002,1.247 -0.22,1.673 -0.463,1.917 -0.322,0.323 -0.783,0.372 -1.145,0.372 l -0.616,0 c -0.363,0 -0.832,-0.049 -1.153,-0.372 -0.244,-0.244 -0.468,-0.67 -0.469,-1.917 0.001,-1.247 0.225,-1.673 0.469,-1.918 0.321,-0.322 0.79,-0.372 1.153,-0.371 l 0.542,0 c 0.249,-10e-4 0.563,0.042 0.731,0.141 l 0.047,0.029 0,-2.266 -0.44,0 0,1.675 c -0.116,-0.014 -0.23,-0.019 -0.338,-0.019 l -0.542,0 c -0.394,0.002 -0.996,0.04 -1.464,0.5 -0.169,0.167 -0.334,0.417 -0.436,0.769 -0.104,0.352 -0.162,0.811 -0.162,1.46 0,0.649 0.058,1.107 0.162,1.46 0.102,0.352 0.267,0.602 0.436,0.768 0.468,0.46 1.07,0.498 1.464,0.501 l 0.616,0 c 0.393,-0.002 0.989,-0.042 1.455,-0.501 0.171,-0.168 0.334,-0.419 0.433,-0.77 0.102,-0.353 0.157,-0.809 0.157,-1.458 l 0,-4.385 -0.437,0"
         inkscape:connector-curvature="0"
         id="path20852"
         style="fill:#01748f;fill-opacity:1;fill-rule:nonzero;stroke:none" />
    </g>
  </g>
</svg>
